static/logos/stripe-wordmark-color.svg

<svg width="50" height="21" viewBox="0 0 50 21" fill="none" xmlns="http://www.w3.org/2000/svg">
<g clip-path="url(#clip0_1_879)">
<path fill-rule="evenodd" clip-rule="evenodd" d="M49.9991 10.75C49.9991 7.19447 48.2769 4.38892 44.9852 4.38892C41.6797 4.38892 39.6797 7.19447 39.6797 10.7223C39.6797 14.9028 42.0408 17.0139 45.4297 17.0139C47.0825 17.0139 48.3325 16.6389 49.2769 16.1111V13.3334C48.3325 13.8056 47.2491 14.0972 45.8741 14.0972C44.5269 14.0972 43.3325 13.625 43.1797 11.9861H49.9714C49.9714 11.8056 49.9991 11.0834 49.9991 10.75ZM43.138 9.43058C43.138 7.86114 44.0964 7.20836 44.9714 7.20836C45.8186 7.20836 46.7214 7.86114 46.7214 9.43058H43.138Z" fill="#635BFF"/>
<path fill-rule="evenodd" clip-rule="evenodd" d="M34.3177 4.38892C32.9566 4.38892 32.0816 5.02781 31.5955 5.47225L31.4149 4.61114H28.3594V20.8056L31.8316 20.0695L31.8455 16.1389C32.3455 16.5 33.0816 17.0139 34.3038 17.0139C36.7899 17.0139 39.0538 15.0139 39.0538 10.6111C39.0399 6.58336 36.7483 4.38892 34.3177 4.38892ZM33.4844 13.9583C32.6649 13.9583 32.1788 13.6667 31.8455 13.3056L31.8316 8.15281C32.1927 7.75003 32.6927 7.47225 33.4844 7.47225C34.7483 7.47225 35.6233 8.88892 35.6233 10.7084C35.6233 12.5695 34.7622 13.9583 33.4844 13.9583Z" fill="#635BFF"/>
<path fill-rule="evenodd" clip-rule="evenodd" d="M23.5859 3.56944L27.072 2.81944V0L23.5859 0.736111V3.56944Z" fill="#635BFF"/>
<path d="M27.072 4.625H23.5859V16.7778H27.072V4.625Z" fill="#635BFF"/>
<path fill-rule="evenodd" clip-rule="evenodd" d="M19.8472 5.65273L19.625 4.62495H16.625V16.7778H20.0972V8.54161C20.9167 7.47217 22.3056 7.66661 22.7361 7.81939V4.62495C22.2917 4.45828 20.6667 4.15273 19.8472 5.65273Z" fill="#635BFF"/>
<path fill-rule="evenodd" clip-rule="evenodd" d="M12.9028 1.61115L9.51389 2.33337L9.5 13.4584C9.5 15.5139 11.0417 17.0278 13.0972 17.0278C14.2361 17.0278 15.0695 16.8195 15.5278 16.5695V13.75C15.0833 13.9306 12.8889 14.5695 12.8889 12.5139V7.58337H15.5278V4.62503H12.8889L12.9028 1.61115Z" fill="#635BFF"/>
<path fill-rule="evenodd" clip-rule="evenodd" d="M3.51389 8.15281C3.51389 7.61114 3.95833 7.4028 4.69444 7.4028C5.75 7.4028 7.08333 7.72225 8.13889 8.29169V5.0278C6.98611 4.56947 5.84722 4.38892 4.69444 4.38892C1.875 4.38892 0 5.86114 0 8.31947C0 12.1528 5.27778 11.5417 5.27778 13.1945C5.27778 13.8334 4.72222 14.0417 3.94444 14.0417C2.79167 14.0417 1.31944 13.5695 0.152778 12.9306V16.2361C1.44444 16.7917 2.75 17.0278 3.94444 17.0278C6.83333 17.0278 8.81944 15.5972 8.81944 13.1111C8.80556 8.97225 3.51389 9.70836 3.51389 8.15281Z" fill="#635BFF"/>
</g>
<defs>
<clipPath id="clip0_1_879">
<rect width="50" height="20.8333" fill="white"/>
</clipPath>
</defs>
</svg>

<svg xmlns="http://www.w3.org/2000/svg" width="152.381" height="64" fill="none" viewBox="0 0 50 21"><g fill="#635BFF" clip-path="url(#a)"><path fill-rule="evenodd" d="M50 10.75c0-3.556-1.723-6.361-5.015-6.361-3.305 0-5.305 2.805-5.305 6.333 0 4.18 2.36 6.292 5.75 6.292 1.653 0 2.903-.375 3.847-.903v-2.778c-.944.473-2.028.764-3.403.764-1.347 0-2.541-.472-2.694-2.11h6.791c0-.181.028-.904.028-1.237Zm-6.862-1.32c0-1.569.958-2.222 1.833-2.222.848 0 1.75.653 1.75 2.223h-3.583ZM34.318 4.389c-1.361 0-2.236.639-2.722 1.083l-.181-.86h-3.056v16.194l3.473-.736.014-3.931c.5.361 1.236.875 2.458.875 2.486 0 4.75-2 4.75-6.403-.014-4.028-2.306-6.222-4.736-6.222Zm-.834 9.57c-.82 0-1.305-.292-1.639-.653l-.013-5.153c.36-.403.86-.68 1.652-.68 1.264 0 2.14 1.416 2.14 3.235 0 1.861-.862 3.25-2.14 3.25ZM23.586 3.57l3.486-.75V0l-3.486.736V3.57Z" clip-rule="evenodd"/><path d="M27.072 4.625h-3.486v12.153h3.486V4.625Z"/><path fill-rule="evenodd" d="m19.847 5.653-.222-1.028h-3v12.153h3.472V8.542c.82-1.07 2.209-.875 2.64-.723V4.625c-.445-.167-2.07-.472-2.89 1.028ZM12.903 1.611l-3.39.722L9.5 13.458c0 2.056 1.542 3.57 3.597 3.57 1.14 0 1.973-.208 2.43-.458v-2.82c-.444.18-2.638.82-2.638-1.236v-4.93h2.639V4.624h-2.64l.015-3.014ZM3.514 8.153c0-.542.444-.75 1.18-.75 1.056 0 2.39.32 3.445.889V5.028a9.16 9.16 0 0 0-3.445-.64C1.875 4.389 0 5.862 0 8.32c0 3.834 5.278 3.223 5.278 4.875 0 .64-.556.848-1.334.848-1.152 0-2.625-.473-3.791-1.111v3.305a9.627 9.627 0 0 0 3.791.792c2.89 0 4.875-1.43 4.875-3.917-.013-4.139-5.305-3.403-5.305-4.958Z" clip-rule="evenodd"/></g><defs><clipPath id="a"><path fill="#fff" d="M0 0h50v20.833H0z"/></clipPath></defs></svg>
